localPackages/DesignSystem/Sources/DesignSystem/Resources/Assets.xcassets/IconSet/ic-arrow-left.imageset/ic-arrow-left.svg

<svg width="24" height="24" viewBox="0 0 24 24" fill="none" xmlns="http://www.w3.org/2000/svg">
<g id="ic-arrow-left">
<path id="Icon" fill-rule="evenodd" clip-rule="evenodd" d="M12.4724 3.21901C12.7643 3.513 12.7627 3.98801 12.4687 4.27997L5.45039 11.2498L20.2498 11.2498C20.6641 11.2498 21 11.5857 21 12C21 12.4144 20.6641 12.7503 20.2498 12.7503L5.45039 12.7503L12.4687 19.7201C12.7627 20.0121 12.7643 20.4871 12.4724 20.7811C12.1804 21.0751 11.7054 21.0767 11.4114 20.7847L3.31459 12.7438C3.14884 12.5792 3.04961 12.3732 3.01689 12.1591C3.00583 12.1078 3 12.0546 3 12C3 11.9455 3.00582 11.8923 3.01689 11.841C3.04961 11.6269 3.14884 11.4209 3.31459 11.2563L11.4114 3.21534C11.7054 2.92337 12.1804 2.92502 12.4724 3.21901Z" fill="#0F0F0F"/>
</g>
</svg>

<svg xmlns="http://www.w3.org/2000/svg" width="24" height="24" viewBox="0 0 24 24">
  <g class="ic-arrow-left">
    <path fill-rule="evenodd" d="M12.472 3.22a.75.75 0 0 1-.003 1.06L5.45 11.25h14.8a.75.75 0 0 1 0 1.5H5.45l7.019 6.97a.75.75 0 0 1-1.058 1.065l-8.096-8.04a1.044 1.044 0 0 1-.298-.585.754.754 0 0 1 0-.318c.033-.215.132-.42.298-.585l8.096-8.041a.75.75 0 0 1 1.061.004Z" class="Icon"/>
  </g>
</svg>
